icons-common/download.svg

<svg height="1em" width="auto" viewBox="0 0 105 105" fill="currentColor" xmlns="http://www.w3.org/2000/svg">
    <path d="M70.6135 85.531H35.1603C25.4796 85.6163 19.499 77.4197 22.855 66.6189C23.7155 63.2891 28.9216 63.716 29.2228 67.0885C29.6531 70.0342 29.7391 74.0471 31.5032 75.9682C33.4393 77.7185 37.4837 77.8039 40.4525 78.2308H65.4934C74.873 77.4624 75.7335 76.3098 76.551 67.0885C76.8952 63.6733 82.1013 63.3317 82.9619 66.6189C86.3179 77.4624 80.3373 85.6163 70.6135 85.531Z"
          />
    <path d="M41.5282 47.7067L55.9418 61.2397H49.8752L64.2888 47.7067C65.7947 46.2979 68.1611 46.3406 69.624 47.8348C71.0008 49.2863 71.0008 51.5489 69.624 52.9577L55.9849 67.2591C54.3499 69.0094 51.5532 68.9667 49.9183 67.2591L36.2791 52.9577C33.0092 49.4997 38.1292 44.4195 41.6143 47.664L41.5282 47.7067Z"
          />
    <path d="M56.6732 23.0316C57.4047 36.8635 57.4047 50.738 56.6732 64.5698C56.5442 66.6189 54.7371 68.1985 52.6719 68.0704C50.7357 67.9424 49.2728 66.4055 49.1437 64.5698C48.7135 57.6539 48.6705 50.738 48.6274 43.8221C48.6705 36.9061 48.7135 29.9902 49.1437 23.0743C49.2728 21.0252 51.0799 19.4456 53.1451 19.5737C55.0813 19.7017 56.5442 21.2386 56.6732 23.0743V23.0316Z"
          />
</svg>

<svg xmlns="http://www.w3.org/2000/svg" width="auto" height="1em" fill="currentColor" viewBox="0 0 105 105">
    <path d="M70.614 85.531H35.16c-9.68.085-15.661-8.111-12.305-18.912.86-3.33 6.067-2.903 6.368.47.43 2.945.516 6.958 2.28 8.88 1.936 1.75 5.98 1.835 8.95 2.262h25.04c9.38-.769 10.24-1.921 11.058-11.142.344-3.416 5.55-3.757 6.41-.47 3.357 10.843-2.624 18.997-12.347 18.912"/>
    <path d="M41.528 47.707 55.942 61.24h-6.067L64.29 47.707a3.814 3.814 0 0 1 5.335.128c1.377 1.451 1.377 3.714 0 5.123l-13.64 14.301c-1.634 1.75-4.43 1.708-6.066 0L36.28 52.958c-3.27-3.458 1.85-8.538 5.335-5.294z"/>
    <path d="M56.673 23.032a393 393 0 0 1 0 41.538c-.129 2.049-1.936 3.629-4.001 3.5a3.78 3.78 0 0 1-3.528-3.5c-.43-6.916-.474-13.832-.517-20.748.043-6.916.087-13.832.517-20.748.129-2.049 1.936-3.628 4.001-3.5a3.78 3.78 0 0 1 3.528 3.5z"/>
</svg>
